X: 36
T:Pachpi
O:France
F: http://www.youtube.com/watch?v=0cj-bagKjs8
F: http://www.youtube.com/watch?v=H5kTQpZrhXQ
M:2/4
L:1/8
Q:1/4=180
K:GDor
|:"C"C2 C2   |"Gm"D2"C"C2|"F"FE"Gm"DE   |"F"F2"C"G2 |\
  "C"C2 C2   |"Gm"D2"C"C2|"F"FE"Gm"DE   |"F"F4      :|
|:"C"G2"Gm"GB|"F"A2"C"G2 |"F"F2"Gm"D2   |"Gm"D2"C"C2|\
  "C"G2"Gm"GB|"F"A2"C"G2 |"F"F2"Dm"(3DEF|"C"G4      :|
